!!!OTL: Xin dongbeifeng
!!!ARE: Asia, China,ÿLiaoning
!! III, 246
!!!SCT: C1746
!!!YEM: Copyright 1995, estate of Helmut Schaffrath.
**kern
*ICvox
*Ivox
*M2/4
*k[f#c#g#]
*A:
{8r
8b
8b
8f#
=1
8b
4.b}
=2
{8.ee
16cc#
4b
=3
8.ee
16cc#
4b
=4
8b
16ee
16ee
8cc#
8b
=5
8a
16b
16a
4f#}
=6
{8b
16ee
16ee
8cc#
8b
=7
8a
16b
16a
4f#}
=8
{8r
8ee
8ee
8ee
=9
4ee
8cc#
8gg#
=10
[2ff#
=11
2ff#]}
=12
{8cc#
16ff#
16ff#
8ee
8cc#
=13
4b
8a
8f#
=14
4.ee
8cc#
=15
2ff#}
=16
{8b
16b
16b
8b
8ee
=17
4b
8a
8f#
=18
8b
8b
8b
8b
=19
4ee
8f#
8f#
=20
2e}
=21
{4a
4cc#
=22
8f#
8f#
4e
=23
8cc#
8cc#
8b
8cc#
=24
2e}
==
!!!AGN: Xiaodiao, Dongbeigeng diao
!!!AMT: simple duple
!!!AIN: vox
!!!EED: Helmut Schaffrath
!!!EEV: 1.0
*-
!!!ONB: Tied note syntax fixed by Craig Sapp, 2004/05/03/
